!!!ONB: measures 7, 43-4, 52, 58, 100-1, 117-8, 129-30: longs or breves?
!!!COM: Gaspar van Weerbeke
!!!CDT: ~1450-~1517
!!!OPR: Lamentatio Ieremiae prophetae
!!!OTL: In coena Domini. Lectio tertia
!!!OMV: 3
!!!AGN: Motet; Lamentation
!!!SCT: Gas0501c
!!!SCA: Gas0501c
!!!voices: 4
**kern	**text	**kern	**text	**kern	**text	**kern	**text
*part4	*part4	*part3	*part3	*part2	*part2	*part1	*part1
*staff4	*staff4	*staff3	*staff3	*staff2	*staff2	*staff1	*staff1
*I"Bassus	*	*I"Tenor	*	*I"Altus	*	*I"Superius	*
*I'B	*	*I'T	*	*I'A	*	*I'	*
*clefF4	*	*clefGv2	*	*clefGv2	*	*clefG2	*
*k[]	*	*k[]	*	*k[]	*	*k[]	*
*M2/2	*	*M2/2	*	*M2/2	*	*M2/2	*
*met(C|)	*	*met(C|)	*	*met(C|)	*	*met(C|)	*
=1	=1	=1	=1	=1	=1	=1	=1
!!LO:TX:a:t=[In coena Domini. Primo nocturno]\n[Lectio tertia]
*	*	*lig	*	*	*	*	*
[[1F	Vau.	1F	Vau.	1c	Vau.	[[1f	Vau.
=2	=2	=2	=2	=2	=2	=2	=2
1F]	.	1A	.	2d	.	1f]	.
*	*	*Xlig	*	*	*	*	*
.	.	.	.	2c	.	.	.
=3	=3	=3	=3	=3	=3	=3	=3
*	*	*	*	*	*	*lig	*
1F	.	1c	.	1f	.	1a	.
=4	=4	=4	=4	=4	=4	=4	=4
1G	.	2r	.	1d	.	1b-i	.
*	*	*	*	*	*	*Xlig	*
.	.	[[2d	[Vau]	.	.	.	.
=5	=5	=5	=5	=5	=5	=5	=5
2D	.	2d]	.	1f	.	1a	.
2F	.	2c	.	.	.	.	.
=6	=6	=6	=6	=6	=6	=6	=6
1C	.	1c	.	1e	.	1g	.
!!LO:LB:g=original
=7	=7	=7	=7	=7	=7	=7	=7
*	*	*	*	*col	*	*	*
[0Fl	.	[0Al	.	2.f	.	[0fl	.
.	.	.	.	4c	.	.	.
*	*	*	*	*Xcol	*	*	*
=8	=8	=8	=8	=8	=8	=8	=8
.	.	.	.	0c	.	.	.
1F]	.	1A]	.	.	.	1f]	.
=9||	=9||	=9||	=9||	=9||	=9||	=9||	=9||
1D	Et	1A	Et	1d	Et	1f	Et
=10	=10	=10	=10	=10	=10	=10	=10
2C	e-	2c	e-	2e	e-	2g	e-
[2F	-gres-	[2c	-gres-	[2A	-gres-	[2a	-gres-
=11	=11	=11	=11	=11	=11	=11	=11
2F]	.	2c]	.	2A]	.	2a]	.
2E	-sus	2c	-sus	2c	-sus	2g	-sus
=12	=12	=12	=12	=12	=12	=12	=12
1C	est	1c	est	1G	est	1e	est
!!LO:LB:g=original
=13	=13	=13	=13	=13	=13	=13	=13
2r	.	2r	.	2r	.	2r	.
2D	a	2A	a	2d	a	2a	a
=14	=14	=14	=14	=14	=14	=14	=14
2.F	fi-	2.A	fi-	2.c	fi-	2.a	fi-
4F	-li-	4A	-li-	4c	-li-	4a	-li-
=15	=15	=15	=15	=15	=15	=15	=15
2F	-a	2c	-a	2f	-a	2a	-a
2C	Sy-	2c	Sy-	2e	Sy-	2g	Sy-
=16	=16	=16	=16	=16	=16	=16	=16
*	*	*	*	*	*	*lig	*
1BB-X	-on	[1d	-on	[1f	-on	1b-i	-on
=17	=17	=17	=17	=17	=17	=17	=17
1D	.	1d]	.	1f]	.	1a	.
*	*	*	*	*	*	*Xlig	*
=18	=18	=18	=18	=18	=18	=18	=18
1r	.	1r	.	1r	.	1r	.
!!LO:LB:g=original
=19	=19	=19	=19	=19	=19	=19	=19
1F	o-	1c	o-	1f	o-	1a	o-
=20	=20	=20	=20	=20	=20	=20	=20
1D	-mnis	1F	-mnis	1f	-mnis	1a	-mnis
=21	=21	=21	=21	=21	=21	=21	=21
2E	de-	2G	de-	2c	de-	2g	de-
2D	-cor	2A	-cor	2d	-cor	2f	-cor
=22	=22	=22	=22	=22	=22	=22	=22
1G	e-	1B-i	e-	1d	e-	1g	e-
=23	=23	=23	=23	=23	=23	=23	=23
*	*	*	*	*lig	*	*	*
2.D	-ius;	[1A	-ius;	1d	-ius;	[1a	-ius;
4C	.	.	.	.	.	.	.
=24	=24	=24	=24	=24	=24	=24	=24
1AA	.	1A]	.	1c	.	1a]	.
*	*	*	*	*Xlig	*	*	*
!!LO:PB:g=original
=25	=25	=25	=25	=25	=25	=25	=25
1r	.	1r	.	1r	.	1r	.
=26	=26	=26	=26	=26	=26	=26	=26
1D	fa-	1A	fa-	1A	fa-	1f	fa-
=27	=27	=27	=27	=27	=27	=27	=27
*	*	*	*	*col	*	*	*
1D	-cti	1F	-cti	2.A	-cti	1d	-cti
.	.	.	.	4B-i	.	.	.
*	*	*	*	*Xcol	*	*	*
=28	=28	=28	=28	=28	=28	=28	=28
1C	sunt	1G	sunt	1c	sunt	1e	sunt
=29	=29	=29	=29	=29	=29	=29	=29
2.c	prin-	2.F	prin-	2.A	prin-	2.f	prin-
4B-i	-ci-	4G	-ci-	4B-i	-ci-	4e	-ci-
=30	=30	=30	=30	=30	=30	=30	=30
2A	-pes	2A	-pes	4c	-pes	2f	-pes
.	.	.	.	2f	e-	.	.
2G	e-	2B-i	e-	.	.	2g	e-
.	.	.	.	4e	.	.	.
=31	=31	=31	=31	=31	=31	=31	=31
1F	-ius	1c	-ius	1f	-ius	1a	-ius
!!LO:LB:g=original
=32	=32	=32	=32	=32	=32	=32	=32
1r	.	1r	.	1r	.	1r	.
=33	=33	=33	=33	=33	=33	=33	=33
2F	non	2c	non	2f	non	2a	non
2F	in-	2c	in	2f	in	2a	in-
=34	=34	=34	=34	=34	=34	=34	=34
2C	-ve-	2c	ve-	2e	ve-	2g	-ve-
2F	-ni-	2c	-ni-	2f	-ni-	2a	-ni-
=35	=35	=35	=35	=35	=35	=35	=35
*	*	*	*	*col	*	*	*
1A	-en-	1c	-en-	2.e	-en-	1cc	-en-
.	.	.	.	4f	.	.	.
*	*	*	*	*Xcol	*	*	*
=36	=36	=36	=36	=36	=36	=36	=36
*	*	*	*	*	*	*col	*
1G	-tes,-	2.d	.	1g	.	2.b-i	.
.	.	8cL	.	.	.	8aL	.
*	*	*	*	*	*	*	*
.	.	8B-iJ	.	.	.	8gJ	.
*	*	*	*	*	*	*Xcol	*
=37	=37	=37	=37	=37	=37	=37	=37
*	*	*	*	*lig	*	*	*
2r	.	2A	.	1c	.	2f	.
*	*edit	*	*	*	*	*	*
2E	-in-	2G	.	.	.	[2g	.
!!LO:LB:g=original
=38	=38	=38	=38	=38	=38	=38	=38
1D	-ve-	1A	.	1d	.	2g]	.
*	*	*	*	*Xlig	*	*	*
.	.	.	.	.	.	2f#i	.
=39	=39	=39	=39	=39	=39	=39	=39
*	*	*	*	*lig	*	*	*
1G	-ni-	1G	-tes	1d	.	1g	-tes
=40	=40	=40	=40	=40	=40	=40	=40
1G	-en-	2.d	pa-	1g	.	1b-i	pa-
*	*	*	*	*Xlig	*	*	*
.	.	4B-i	.	.	.	.	.
=41	=41	=41	=41	=41	=41	=41	=41
2C	-tes	1c	.	2e	-tes	2g	.
*	*Xedit	*	*	*	*	*	*
2F	pa-	.	.	[2c	pa-	[2a	.
=42	=42	=42	=42	=42	=42	=42	=42
1D	.	1F	-scu-	2c]	.	2a]	.
.	.	.	.	2B	-scu-	[2f	.
=43	=43	=43	=43	=43	=43	=43	=43
*	*	*lig	*	*	*	*	*
1C	-scu-	1G	-a.	[1c	-a.	2f]	.
.	.	.	.	.	.	2e	-scu-
=44	=44	=44	=44	=44	=44	=44	=44
1Fl	-a.	1Fl	.	1cl]	.	1fl	-a.
*	*	*Xlig	*	*	*	*	*
!!LO:LB:g=original
=45||	=45||	=45||	=45||	=45||	=45||	=45||	=45||
1C	Za-	1G	Za-	1c	Za-	1e	Za-
=46	=46	=46	=46	=46	=46	=46	=46
*lig	*	*	*	*	*	*	*
1C	-y.	1c	-y.	1e	-y.	[[1g	-y.
=47	=47	=47	=47	=47	=47	=47	=47
1G	.	2.d	.	[[1d	.	1g]	.
*Xlig	*	*	*	*	*	*	*
.	.	8cL	.	.	.	.	.
.	.	8B-iJ	.	.	.	.	.
=48	=48	=48	=48	=48	=48	=48	=48
*	*	*	*	*	*	*lig	*
*lig	*	*	*	*	*	*	*
2F	.	2A	.	1d]	.	2a	.
2G	.	2G	.	.	.	2b-i	.
*Xlig	*	*	*	*	*	*Xlig	*
=49	=49	=49	=49	=49	=49	=49	=49
1C	.	1c	.	1e	.	1g	.
=51	=51	=51	=51	=51	=51	=51	=51
1Fl	.	1Al	.	1cl	.	1fl	.
!!LO:PB:g=original
=52||	=52||	=52||	=52||	=52||	=52||	=52||	=52||
1D	Re-	1F	Re-	1f	Re-	1a	Re-
=53	=53	=53	=53	=53	=53	=53	=53
2D	-cor-	2F	-cor-	2d	-cor-	2f	-cor-
[2C	-da-	[2c	-da-	[2e	-da-	[2g	-da-
=54	=54	=54	=54	=54	=54	=54	=54
2C]	.	2c]	.	2e]	.	2g]	.
2E	-ta	2B	-ta	2e	-ta	2g	-ta
=55	=55	=55	=55	=55	=55	=55	=55
1D	est	1d	est	1f	est	1a	est
=56	=56	=56	=56	=56	=56	=56	=56
2G	Ie-	2d	Ie-	2d	Ie-	2g	Ie-
[2G	-ru-	[2d	-ru-	[2g	-ru-	[2b-i	-ru-
=57	=57	=57	=57	=57	=57	=57	=57
2G]	.	2d]	.	2g]	.	2b-]	.
2G	-sa-	2d	-sa-	2g	-sa-	2b-i	-sa-
!!LO:LB:g=original
=58	=58	=58	=58	=58	=58	=58	=58
*	*	*	*	*	*	*lig	*
*	*	*lig	*	*	*	*	*
1B-i	-lem	1d	-lem	[1fl	-lem	1b-i	-lem
=59	=59	=59	=59	=59	=59	=59	=59
1F	.	1c	.	1f]	.	1a	.
*	*	*Xlig	*	*	*	*Xlig	*
=60	=60	=60	=60	=60	=60	=60	=60
1r	.	1r	.	1r	.	1r	.
=61	=61	=61	=61	=61	=61	=61	=61
2G	di-	2B-X	di-	1r	.	2d	di-
2G	-e-	2B-	-e-	.	.	2d	-e-
=62	=62	=62	=62	=62	=62	=62	=62
2C	-rum	2c	-rum	2G	di-	2e	-rum
2D	af-	2F	af-	2B-i	-e-	2f	af-
=63	=63	=63	=63	=63	=63	=63	=63
2C	-fli-	2G	-fli-	2c	-rum	2e	-fli-
2F	-cti-	2A	-cti-	2c	af-	2f	-cti-
=64	=64	=64	=64	=64	=64	=64	=64
2C	-o-	1G	-o-	1c	-fli-	1g	-o-
2C	-nis	.	.	.	.	.	.
!!LO:LB:g=original
=65	=65	=65	=65	=65	=65	=65	=65
1r	.	2F	-nis	2f	-cti-	2a	-nis
.	.	2G	su-	2d	-o-	[2b-i	su-
=66	=66	=66	=66	=66	=66	=66	=66
*	*	*	*	*lig	*	*	*
*	*	*lig	*	*	*	*	*
*lig	*	*	*	*	*	*	*
1F	su-	1A	.	2c	-nis	4b-]	.
.	.	.	.	.	.	4a	.
.	.	.	.	2f	.	[2a	.
*	*	*	*	*Xlig	*	*	*
=67	=67	=67	=67	=67	=67	=67	=67
1G	.	1B-i	.	1d	su-	2a]	.
*Xlig	*	*Xlig	*	*	*	*	*
.	.	.	.	.	.	2g	.
=68	=68	=68	=68	=68	=68	=68	=68
1D	-e	1A	-e	1d	-e	1a	-e
=69	=69	=69	=69	=69	=69	=69	=69
1r	.	1r	.	1r	.	1r	.
=70	=70	=70	=70	=70	=70	=70	=70
2F	et	2F	et	2c	et	2a	et
2F	pre-	2D	pre-	2d	pre-	2a	pre-
=71	=71	=71	=71	=71	=71	=71	=71
2.F	-va-	2.A	-va-	2.f	-va-	2.cc	-va-
4F	-ri-	4A	-ri-	4f	-ri-	4b-i	-ri-
!!LO:LB:g=original
=72	=72	=72	=72	=72	=72	=72	=72
2F	-ca-	2c	-ca-	2f	-ca-	2a	-ca-
2G	-ti-	2B-i	-ti-	2d	-ti-	2g	-ti-
=73	=73	=73	=73	=73	=73	=73	=73
1D	-o-	1d	-o-	1f	-o-	1a	-o-
=74	=74	=74	=74	=74	=74	=74	=74
1G	-nis	1d	-nis	1g	-nis	1g	-nis
=75	=75	=75	=75	=75	=75	=75	=75
2r	.	2r	.	2r	.	2r	.
[2D	o-	[2A	o-	[2f	o-	[2a	o-
=76	=76	=76	=76	=76	=76	=76	=76
4D]	.	4A]	.	4f]	.	4a]	.
4D	-mni-	4A	-mni-	4e	-mni-	4g	-mni-
2D	-um	2A	-um	2d	-um	2f	-um
=77	=77	=77	=77	=77	=77	=77	=77
2r	.	2r	.	2r	.	2r	.
[2BB-X	de-	[2B-i	de-	[2f	de-	[2f	de-
=78	=78	=78	=78	=78	=78	=78	=78
2BB-]	.	2B-]	.	2f]	.	2f]	.
2BB-i	-si-	2B-i	-si-	2f	-si-	2f	-si-
!!LO:PB:g=original
=79	=79	=79	=79	=79	=79	=79	=79
2D	-de-	2A	-de-	2f	-de-	2f	-de-
2D	-ra-	2A	-ra-	2f	-ra-	2f	-ra-
=80	=80	=80	=80	=80	=80	=80	=80
2E-i	-bi-	2.G	-bi-	2.B-X	-bi-	2.g	-bi-
2E-i	-li-	.	.	.	.	.	.
.	.	4G	-li-	4c	-li-	4g	-li-
=81	=81	=81	=81	=81	=81	=81	=81
*	*	*	*	*col	*	*	*
*col	*	*	*	*	*	*	*
2.D	-um	1F	-um	2.d	-um	1a	-um
4F	.	.	.	4c	.	.	.
*Xcol	*	*	*	*Xcol	*	*	*
=82	=82	=82	=82	=82	=82	=82	=82
2C	su-	2E	su-	2c	su-	2g	su-
2D	-o-	2F	-o-	2B-j	-o-	[2f	-o-
=83	=83	=83	=83	=83	=83	=83	=83
*	*	*lig	*	*	*	*	*
1C	.	1G	-rum.	[1cl	-rum.	2f]	.
.	.	.	.	.	.	2e	.
=84	=84	=84	=84	=84	=84	=84	=84
1Fl	-rum.	1Fl	.	1c]	.	1fl	-rum.
*	*	*Xlig	*	*	*	*	*
!!LO:LB:g=original
=85||	=85||	=85||	=85||	=85||	=85||	=85||	=85||
1D	Vi-	1F	Vi-	1d	Vi-	1a	Vi-
=86	=86	=86	=86	=86	=86	=86	=86
1F	-de-	1A	-de-	1c	-de-	1a	-de-
=87	=87	=87	=87	=87	=87	=87	=87
1C	-runt	1c	-runt	1e	-runt	1g	-runt
=88	=88	=88	=88	=88	=88	=88	=88
1G	e-	1d	e-	1d	e-	1b-i	e-
=89	=89	=89	=89	=89	=89	=89	=89
1D	-am	1d	-am	1f	-am	1a	-am
=90	=90	=90	=90	=90	=90	=90	=90
1E	ho-	1G	ho-	1c	ho-	1g	ho-
=91	=91	=91	=91	=91	=91	=91	=91
1D	-stes	1A	-stes	1d	-stes	1f	-stes
!!LO:LB:g=original
=92	=92	=92	=92	=92	=92	=92	=92
1r	.	1r	.	1r	.	1r	.
=93	=93	=93	=93	=93	=93	=93	=93
1G	et	1G	et	1B-i	et	1d	et
=94	=94	=94	=94	=94	=94	=94	=94
2E	de-	2G	de-	2c	de-	2e	de-
2D	-ri-	2A	-ri-	2d	-ri-	2f	-ri-
=95	=95	=95	=95	=95	=95	=95	=95
1C	-se-	1c	-se-	1e	-se-	1g	-se-
=96	=96	=96	=96	=96	=96	=96	=96
1F	-runt	1c	-runt	1f	-runt	1a	-runt
=97	=97	=97	=97	=97	=97	=97	=97
1G	sab-	2r	.	1d	sab-	1b-i	sab-
.	.	2G	sab-	.	.	.	.
=98	=98	=98	=98	=98	=98	=98	=98
2D	-ba-	2F	-ba-	4.d	-ba-	2a	-ba-
.	.	.	.	8c	.	.	.
2E	.	2G	.	2c	.	2g	.
!!LO:LB:g=original
=99	=99	=99	=99	=99	=99	=99	=99
1D	.	1A	.	1d	-ta	1f	.
=100	=100	=100	=100	=100	=100	=100	=100
1G	-ta	1G	-ta	1d	e-	1g	-ta
=101	=101	=101	=101	=101	=101	=101	=101
[1F	e-	2.c	e-	[1f	.	2.a	e-
.	.	4B-i	.	.	.	4b-i	.
=102	=102	=102	=102	=102	=102	=102	=102
1F]	.	2A	.	1f]	.	2.cc	.
.	.	2F	.	.	.	.	.
.	.	.	.	.	.	8b-iL	.
.	.	.	.	.	.	8aJ	.
=103	=103	=103	=103	=103	=103	=103	=103
*	*	*	*	*	*	*lig	*
1C	.	1c	.	1e	.	1g	-ius.
=104	=104	=104	=104	=104	=104	=104	=104
[1Fl	-ius.	1A	.	[1cl	-ius.	[1fl	.
*	*	*	*	*	*	*Xlig	*
=105	=105	=105	=105	=105	=105	=105	=105
1F]	.	1cl	-ius.	1c]	.	1f]	.
!!LO:PB:g=original
=106||	=106||	=106||	=106||	=106||	=106||	=106||	=106||
*	*	*	*	*	*	*lig	*
1D	Ie-	1A	Ie-	1d	Ie-	1f	Ie-
=107	=107	=107	=107	=107	=107	=107	=107
*	*	*	*	*lig	*	*	*
*lig	*	*	*	*	*	*	*
1E	.	1G	.	1B	.	1g	.
*	*	*	*	*	*	*Xlig	*
=108	=108	=108	=108	=108	=108	=108	=108
1F	.	1c	.	1A	.	1a	.
*Xlig	*	*	*	*Xlig	*	*	*
=109	=109	=109	=109	=109	=109	=109	=109
2A	-ru-	2c	-ru-	2e	-ru-	2a	-ru-
2A	-sa-	2c	-sa-	2e	-sa-	2a	-sa-
=110	=110	=110	=110	=110	=110	=110	=110
1D	-lem,	1d	-lem,	1f	-lem,	1a	-lem,
=111	=111	=111	=111	=111	=111	=111	=111
1r	.	1r	.	1r	.	1r	.
!!LO:LB:g=original
=112	=112	=112	=112	=112	=112	=112	=112
*	*	*	*	*	*	*lig	*
*	*	*lig	*	*	*	*	*
*lig	*	*	*	*	*	*	*
1F	Ie-	1c	Ie-	1f	Ie-	1a	Ie-
=113	=113	=113	=113	=113	=113	=113	=113
1G	.	1B-X	.	1d	.	1b-i	.
*Xlig	*	*Xlig	*	*	*	*Xlig	*
=114	=114	=114	=114	=114	=114	=114	=114
1F	.	1A	.	1f	.	1cc	.
=115	=115	=115	=115	=115	=115	=115	=115
*	*	*lig	*	*	*	*	*
2G	-ru-	2G	-ru-	2B-i	-ru-	2b-i	-ru-
2F	.	2A	.	2f	.	2a	.
*	*	*Xlig	*	*	*	*	*
=116	=116	=116	=116	=116	=116	=116	=116
1G	-sa-	1B-i	-sa-	1d	-sa-	1g	-sa-
=117	=117	=117	=117	=117	=117	=117	=117
*	*	*	*	*lig	*	*	*
2.D	-lem,	[1A	-lem,	1d	-lem,	[1a	-lem,
4C	.	.	.	.	.	.	.
=118	=118	=118	=118	=118	=118	=118	=118
1AA	.	1A]	.	1c	.	1a]	.
*	*	*	*	*Xlig	*	*	*
!!LO:LB:g=original
=119	=119	=119	=119	=119	=119	=119	=119
2D	con-	2A	con-	2d	con-	2f	con-
[2D	-ver-	[2A	-ver-	[2d	-ver-	[2f	-ver-
=120	=120	=120	=120	=120	=120	=120	=120
4D]	.	4A]	.	4d]	.	4f]	.
4C	-te-	4A	-te-	4d	-te-	4f	-te-
2BB-X	-re	2B-i	-re	2d	-re	2f	-re
=121	=121	=121	=121	=121	=121	=121	=121
2r	.	2r	.	2r	.	2r	.
2BB-X	ad	2B-i	ad	2f	ad	2d	ad
=122	=122	=122	=122	=122	=122	=122	=122
2D	Do-	2A	Do-	2d	Do-	2f	Do-
2E-i	.	2G	.	[2B-i	-mi-	2g	.
=123	=123	=123	=123	=123	=123	=123	=123
1G	-mi-	1G	-mi-	4B-]	.	1b-i	.
.	.	.	.	4c	.	.	.
.	.	.	.	4d	.	.	.
.	.	.	.	4e-i	.	.	.
=124	=124	=124	=124	=124	=124	=124	=124
*	*	*lig	*	*	*	*	*
*lig	*	*	*	*	*	*	*
2F	-num	2c	-num	2f	-num	2a	-mi-
2G	.	2B-i	.	2d	.	[2g	-num
*Xlig	*	*Xlig	*	*	*	*	*
=125	=125	=125	=125	=125	=125	=125	=125
1D	De-	1A	.	1d	De-	2g]	.
.	.	.	.	.	.	2f#i	.
!!LO:LB:g=original
=126	=126	=126	=126	=126	=126	=126	=126
*	*	*	*	*lig	*	*	*
1E-i	.	1G	De-	1B-i	-um	1g	De-
=127	=127	=127	=127	=127	=127	=127	=127
1C	-um	1c	-um	1e-i	.	1g	-um
*	*	*	*	*Xlig	*	*	*
=128	=128	=128	=128	=128	=128	=128	=128
1r	.	2A	.	2c	tu-	1cc	tu-
.	.	2F	.	2f	.	.	.
=129	=129	=129	=129	=129	=129	=129	=129
1r	.	1G	tu-	1d	.	2.b-i	.
.	.	.	.	.	.	8aL	.
.	.	.	.	.	.	8gJ	.
=130	=130	=130	=130	=130	=130	=130	=130
*	*	*	*	*	*	*lig	*
1F	tu-	2.A	.	[1c	-um.	2f	.
.	.	.	.	.	.	2a	.
*	*	*	*	*	*	*Xlig	*
.	.	4B-j	.	.	.	.	.
=131	=131	=131	=131	=131	=131	=131	=131
*	*	*lig	*	*	*	*	*
2C	.	2c	.	1c]	.	2g	.
2F	.	2A	.	.	.	[2f	.
*	*	*Xlig	*	*	*	*	*
=132	=132	=132	=132	=132	=132	=132	=132
1C	.	1G	.	[1cl	.	2f]	.
.	.	.	.	.	.	2e	.
=133	=133	=133	=133	=133	=133	=133	=133
1Fl	-um.	1Fl	-um.	1c]	.	1fl	-um.
==	==	==	==	==	==	==	==
*-	*-	*-	*-	*-	*-	*-	*-
!!!system-decoration: [*]
!!!RDF**kern: j = editorial accidental, optional, paren up
!!!RDF**kern: i = editorial accidental
!!!RDF**kern: l = terminal breve
!!!PTL: Gaspar van Weerbeke: Collected Works. V. Settings of Liturgical Texts, Songs, and Instrumental Works
!!!PPR: American Institute of Musicology
!!!PC#: Corpus Mensurabilis Musicae 106/V
!!!PDT: 2020
!!!PED: Pavanello, Agnese
!!!YEC: Copyright 2018, Pavanello, Agnese
!!!YEM: CC-BY-NC 4.0 (https://creativecommons.org/licenses/by-nc/4.0/legalcode)
!!!EED: Zybina, Karina
!!!EEV: 2021/08/09
